public/Img/About/values__management.svg

<svg width="48" height="48" viewBox="0 0 48 48" fill="none" xmlns="http://www.w3.org/2000/svg">
<path fill-rule="evenodd" clip-rule="evenodd" d="M38 4H10C6.68629 4 4 6.68629 4 10V38C4 41.3137 6.68629 44 10 44H38C41.3137 44 44 41.3137 44 38V10C44 6.68629 41.3137 4 38 4ZM15.84 34.76C15.7448 35.0055 15.6021 35.2298 15.42 35.42C15.2256 35.5967 15.0024 35.7387 14.76 35.84C14.5196 35.9425 14.2614 35.9968 14 36C13.4705 35.9926 12.9633 35.7855 12.58 35.42C12.3979 35.2298 12.2552 35.0055 12.16 34.76C11.946 34.2759 11.946 33.7241 12.16 33.24C12.2552 32.9945 12.3979 32.7702 12.58 32.58C13.1551 32.0125 14.0152 31.8468 14.76 32.16C15.0024 32.2613 15.2256 32.4033 15.42 32.58C15.6021 32.7702 15.7448 32.9945 15.84 33.24C16.054 33.7241 16.054 34.2759 15.84 34.76ZM15.88 24.76C15.9377 24.6466 15.9781 24.5253 16 24.4C16.0098 24.2668 16.0098 24.1332 16 24C15.9926 23.4705 15.7855 22.9633 15.42 22.58C15.2256 22.4033 15.0024 22.2613 14.76 22.16C14.0152 21.8468 13.1551 22.0125 12.58 22.58C12.3948 22.7677 12.2516 22.9927 12.16 23.24C12.0575 23.4804 12.0032 23.7386 12 24C11.9969 24.5316 12.2056 25.0426 12.58 25.42C12.9633 25.7855 13.4705 25.9926 14 26C14.2748 26.0022 14.5472 25.9477 14.8 25.84C15.0424 25.7387 15.2656 25.5967 15.46 25.42L15.7 25.12C15.7757 25.0085 15.8362 24.8875 15.88 24.76ZM15.42 15.42C15.2256 15.5967 15.0024 15.7387 14.76 15.84C14.5226 15.952 14.2624 16.0068 14 16C13.4705 15.9926 12.9633 15.7855 12.58 15.42C12.2056 15.0426 11.9969 14.5316 12 14C12.0032 13.7386 12.0575 13.4804 12.16 13.24C12.2613 12.9976 12.4033 12.7744 12.58 12.58C13.1551 12.0125 14.0152 11.8468 14.76 12.16C15.0024 12.2613 15.2256 12.4033 15.42 12.58C15.5967 12.7744 15.7387 12.9976 15.84 13.24C15.9425 13.4804 15.9968 13.7386 16 14C15.9926 14.5295 15.7855 15.0367 15.42 15.42ZM22 36H34C35.1046 36 36 35.1046 36 34C36 32.8954 35.1046 32 34 32H22C20.8954 32 20 32.8954 20 34C20 35.1046 20.8954 36 22 36ZM34 26H22C20.8954 26 20 25.1046 20 24C20 22.8954 20.8954 22 22 22H34C35.1046 22 36 22.8954 36 24C36 25.1046 35.1046 26 34 26ZM22 16H34C35.1046 16 36 15.1046 36 14C36 12.8954 35.1046 12 34 12H22C20.8954 12 20 12.8954 20 14C20 15.1046 20.8954 16 22 16Z" fill="#6B7CFF"/>
</svg>

<svg width="48" height="48" fill="none" xmlns="http://www.w3.org/2000/svg"><path fill-rule="evenodd" clip-rule="evenodd" d="M38 4H10a6 6 0 0 0-6 6v28a6 6 0 0 0 6 6h28a6 6 0 0 0 6-6V10a6 6 0 0 0-6-6ZM15.84 34.76a2 2 0 0 1-.42.66 2.3 2.3 0 0 1-.66.42A2 2 0 0 1 14 36a2.1 2.1 0 0 1-1.42-.58 2 2 0 0 1-.42-.66 1.88 1.88 0 0 1 0-1.52 2 2 0 0 1 .42-.66 2 2 0 0 1 2.18-.42 2.3 2.3 0 0 1 .66.42 2 2 0 0 1 .42.66 1.88 1.88 0 0 1 0 1.52Zm.04-10a1.28 1.28 0 0 0 .12-.36c.01-.133.01-.267 0-.4a2.1 2.1 0 0 0-.58-1.42 2.3 2.3 0 0 0-.66-.42 2 2 0 0 0-2.18.42 1.86 1.86 0 0 0-.42.66A2 2 0 0 0 12 24a2 2 0 0 0 .58 1.42A2.1 2.1 0 0 0 14 26a2 2 0 0 0 .8-.16 2.3 2.3 0 0 0 .66-.42l.24-.3a1.52 1.52 0 0 0 .18-.36Zm-.46-9.34a2.3 2.3 0 0 1-.66.42A1.679 1.679 0 0 1 14 16a2.1 2.1 0 0 1-1.42-.58A2 2 0 0 1 12 14a2 2 0 0 1 .16-.76 2.3 2.3 0 0 1 .42-.66 2 2 0 0 1 2.18-.42 2.3 2.3 0 0 1 .66.42 2.3 2.3 0 0 1 .42.66A2 2 0 0 1 16 14a2.1 2.1 0 0 1-.58 1.42ZM22 36h12a2 2 0 1 0 0-4H22a2 2 0 1 0 0 4Zm12-10H22a2 2 0 1 1 0-4h12a2 2 0 1 1 0 4ZM22 16h12a2 2 0 1 0 0-4H22a2 2 0 1 0 0 4Z" fill="#6B7CFF"/></svg>
